src/main/resources/icons/CFMLIcons/icons/cfunit_dark.svg

<svg xmlns="http://www.w3.org/2000/svg" xmlns:xlink="http://www.w3.org/1999/xlink" width="16" height="16" viewBox="0 0 16 16">
  <defs>
    <polygon id="cfunit_dark-a" points="2 2 14 2 14 10 12 8 11 8 5 14 2 14"/>
  </defs>
  <g fill="none" fill-rule="evenodd">
    <polygon fill="#62B543" points="13.75 10.75 17.25 14.25 10.25 14.25" transform="rotate(90 13.75 12.5)"/>
    <polygon fill="#F26522" points="9.25 10.75 12.75 14.25 5.75 14.25" transform="rotate(-90 9.25 12.5)"/>
    <mask id="cfunit_dark-b" fill="#fff">
      <use xlink:href="#cfunit_dark-a"/>
    </mask>
    <use fill="#ECECEC" xlink:href="#cfunit_dark-a"/>
    <rect width="12" height="12" x="2" y="2" fill="#CADAFF" mask="url(#cfunit_dark-b)"/>
    <rect width="10" height="10" x="3" y="3" fill="#000E35" mask="url(#cfunit_dark-b)"/>
    <path fill="#CADAFF" d="M8.16480501,6.03101103 C7.765624,5.93419866 7.49497475,5.88579248 7.35285724,5.88579248 C7.04129193,5.88579248 6.73159481,5.90529169 6.5047534,6.03101103 C6.27791199,6.15673036 6.18514952,6.25190082 6.04303201,6.46234405 C5.9009145,6.67278728 5.79569446,6.91192374 5.72736874,7.17976058 C5.65904301,7.44759742 5.62488066,7.72089623 5.62488066,7.99966518 C5.62488066,8.27843414 5.65904301,8.55173295 5.72736874,8.81956979 C5.79569446,9.08740663 5.9009145,9.32654309 6.04303201,9.53698632 C6.18514952,9.74742955 6.27791199,9.8318223 6.5047534,9.95754164 C6.73159481,10.083261 6.99700387,10.1214325 7.30856918,10.1214325 C7.4616188,10.1214325 7.72058093,10.0946975 8.08545557,10.0412277 L8.08545557,10.8242366 C7.69755201,10.9414122 7.38516897,11 7.14830645,11 C6.71102181,11 6.3901267,10.9068426 6.04303201,10.7455939 C5.69593733,10.5843452 5.58661965,10.4429823 5.3461131,10.1642133 C5.10560654,9.88544438 4.92112985,9.56021881 4.79267749,9.18852686 C4.66422512,8.81683492 4.5999999,8.42055165 4.5999999,7.99966518 C4.5999999,7.58424477 4.66422512,7.1906945 4.79267749,6.81900255 C4.92112985,6.44731061 5.10560654,6.12208503 5.3461131,5.84331607 C5.58661965,5.56454711 5.88041586,5.34317508 6.22751055,5.17919334 C6.57460523,5.0152116 6.96678901,5 7.40407366,5 C7.62271598,5 7.87629309,5.05973111 8.16480501,5.17919334 L8.16480501,6.03101103 Z M8.5,6.78217203 L9.09989295,6.78217203 L9.09989295,6.33122446 C9.09989295,6.06338761 9.13268881,5.84611506 9.1982815,5.67940029 C9.2638742,5.51268552 9.35132982,5.38423509 9.46065098,5.29404513 C9.56997214,5.20385517 9.69432309,5.14372944 9.83370757,5.11366612 C9.97309205,5.0836028 10.1193069,5.06857136 10.2723565,5.06857136 C10.5729897,5.06857136 10.594852,5.07540371 10.7315035,5.11366612 L10.7315035,5.85460977 C10.6713768,5.83821159 10.5608572,5.83456129 10.4679342,5.83456129 C10.3422149,5.83456129 10.2453241,5.86362067 10.1551341,5.92374731 C10.0649442,5.98387395 10,6.1020276 10,6.27694146 L10,6.78217203 L11,6.78217203 L11,7.58157874 L10,7.58157874 L10,11 L9.09989295,11 L9.09989295,7.58157874 L8.5,7.58157874 L8.5,6.78217203 Z" mask="url(#cfunit_dark-b)"/>
    <polygon fill="#F26522" points="9.25 10.75 12.75 14.25 5.75 14.25" mask="url(#cfunit_dark-b)" transform="rotate(-90 9.25 12.5)"/>
  </g>
</svg>

<svg xmlns="http://www.w3.org/2000/svg" xmlns:xlink="http://www.w3.org/1999/xlink" width="16" height="16" viewBox="0 0 16 16"><rect id="frame" width="16" height="16" fill="none"/><defs><path id="a" d="M2 2h12v8l-2-2h-1l-6 6H2z"/></defs><g fill="none" fill-rule="evenodd"><path fill="#62B543" d="M15.5 12.5L12 16V9z"/><path fill="#F26522" d="M7.5 12.5L11 9v7z"/><mask id="b" fill="#fff"><use xlink:href="#a"/></mask><use fill="#ECECEC" xlink:href="#a"/><path fill="#CADAFF" mask="url(#b)" d="M2 2h12v12H2z"/><path fill="#000E35" mask="url(#b)" d="M3 3h10v10H3z"/><path fill="#CADAFF" d="M8.165 6.031c-.4-.097-.67-.145-.812-.145-.312 0-.621.02-.848.145-.227.126-.32.22-.462.431-.142.21-.247.45-.316.718a3.304 3.304 0 0 0 0 1.64c.069.267.174.507.316.717.142.21.235.295.462.42.227.126.492.164.804.164.153 0 .412-.026.776-.08v.783c-.387.117-.7.176-.937.176-.437 0-.758-.093-1.105-.254-.347-.162-.456-.303-.697-.582a2.953 2.953 0 0 1-.553-.975 3.615 3.615 0 0 1-.193-1.19c0-.415.064-.808.193-1.18.128-.372.313-.697.553-.976.24-.278.534-.5.882-.664C6.575 5.015 6.967 5 7.404 5c.219 0 .472.06.76.18v.851zm.335.751h.6v-.45c0-.269.033-.486.098-.653a.926.926 0 0 1 .263-.385c.109-.09.233-.15.373-.18.14-.03.285-.045.438-.045.301 0 .323.006.46.045v.74a1.23 1.23 0 0 0-.264-.02.534.534 0 0 0-.313.09c-.09.06-.155.178-.155.353v.505h1v.8h-1V11h-.9V7.582h-.6v-.8z" mask="url(#b)"/><path fill="#F26522" mask="url(#b)" transform="rotate(-90 9.25 12.5)" d="M9.25 10.75l3.5 3.5h-7z"/></g></svg>
